X:3353
T:Ornunga Brudmarsch
C:Musik: Stina Spets
O:Borgstena, Västergötland
R:Marsch
Z:Per Oldberg 2013-08
N:Vinnande tävlingsbidrag på Ornungastämman 2013
M:4/4
V:1
V:2
K:Dmaj
V:1
A2 |: "D"d3fa2g2 | f4(dc)(BA) | "G"(B3b)b2g2 | e6d2 | "A"(c3d)e2f2 | 
V:2
A2 |: [AF]3 df2e2 | d4 A2FD | (G3g)g2e2 | c6B2 | (A3B)c2d2 | 
V:1
|1 g2(fg)"A/C#"(b3a) | "D"f3gf2(ef) | d6A2 :|2 "A7"(g3A)c2e2 | "D"d3g"A"f2(ef) | "D"d4(d2c2) ||
V:2
[I:repbra = 0]|1 e2 (de)(g3f) | d3ed2(cd) | [AF]6A2 :|2 (e3A)G2A2 | F2A2d2A2 | F4(F2A2) ||   
V:1
"G"B3cd2b2 | "D"a4"A"(gf)(ga) | "D"(f3f) (ef)(ga) | f3f"D/F#"d2c2 | "G"B3cd2b2 | 
V:2
G3AB2g2 | f4(ed)(ef) | (d3d) (cd)(ef) | d3dA2A2 | G3AB2g2 | 
V:1
"D"a4"A"(gf)(ga) | "D"(f3f) (ef)(ga) | f3f"D/F#"g2a2 | "G"b3b"G/B"g2f2 | "A"e4"A/C#"(fe)(fg) | 
V:2
f4(ed)(ef) | (d3d)(cd)(ef) | d3de2f2 | g3ge2d2 | c4A2(de) | 
V:1
"D"(a3b)"A"f2e2 | "Bm"d4(g2a2) | "D"f3f (ef)(ga) | f2(ed) "A7"(cd)(ef) | "D"d6 ||  
V:2
(f3g)d2c2 | F4(e2f2) | d3d (cd)(ef) | d2A2G2(AG) | [AF]6 ||
(:musicend:)
(:music:)
